src/lib/packages/icons/src/assets/filled/tag.svg

<svg width="24" height="24" viewBox="0 0 24 24" fill="none" xmlns="http://www.w3.org/2000/svg">
<path d="M19.96 15.21L15.2 19.98C13.83 21.34 12.4201 21.34 11.0601 19.98L10.256 19.167C10.139 19.05 10.139 18.86 10.256 18.743L18.7321 10.267C18.8491 10.15 19.039 10.15 19.156 10.267L19.959 11.07C21.37 12.48 21.32 13.84 19.96 15.21ZM17.698 9.23199L9.22205 17.708C9.10505 17.825 8.91497 17.825 8.79797 17.708L3.85999 12.77C3.30899 12.219 3 11.473 3 10.694V4.95001C3 3.87301 3.87295 3 4.94995 3H10.687C11.465 3 12.211 3.30899 12.76 3.85999L17.698 8.80798C17.815 8.92498 17.815 9.11499 17.698 9.23199ZM8 7C8 6.448 7.55395 6 7.00195 6H6.99194C6.44194 6 5.99902 6.448 5.99902 7C5.99902 7.552 6.45098 8 7.00098 8C7.55398 8 8 7.552 8 7Z" fill="currentColor"/>
</svg>

<svg xmlns="http://www.w3.org/2000/svg" width="24" height="24" fill="none"><path fill="currentColor" d="m19.96 15.21-4.76 4.77c-1.37 1.36-2.78 1.36-4.14 0l-.804-.813a.3.3 0 0 1 0-.424l8.476-8.476a.3.3 0 0 1 .424 0l.803.803c1.411 1.41 1.361 2.77.001 4.14Zm-2.262-5.978-8.476 8.476a.3.3 0 0 1-.424 0L3.86 12.77A2.934 2.934 0 0 1 3 10.694V4.95A1.95 1.95 0 0 1 4.95 3h5.737c.778 0 1.524.309 2.073.86l4.938 4.948a.3.3 0 0 1 0 .424ZM8 7c0-.552-.446-1-.998-1h-.01a.996.996 0 0 0-.993 1c0 .552.452 1 1.002 1A.999.999 0 0 0 8 7Z"/></svg>
